__todo__/puppet.svg

<svg height="181" preserveAspectRatio="xMidYMid" viewBox="0 0 512 181" width="512" xmlns="http://www.w3.org/2000/svg"><path d="m90.491902 90.491902v-41.6390589h-31.8684902l-16.984353-17.0756666v-31.7771765h-41.6390588v41.6390588h31.8684902l17.0756667 17.0756667v22.0066078l-17.0756667 17.0756667h-31.8684902v41.639059h41.6390588v-31.777177l17.0756667-17.0756663h31.7771765zm-76.6122157-76.6122157h13.8796862v13.8796862h-13.8796862zm13.8796862 111.5853727h-13.8796862v-13.879686h13.8796862z" fill="#ffae1a"/><path d="m136.605333 180.983804h-18.354058v-90.491902h18.354058v5.4788235c2.92204-3.5612353 9.496628-6.9398431 16.527785-6.9398431 19.267196 0 30.133529 15.9799016 30.133529 34.6079016s-10.957647 34.425275-30.133529 34.425275c-7.122471 0-13.605745-3.378608-16.527785-6.939843zm0-46.57c2.357309 4.698276 7.162178 7.665989 12.418667 7.670353 9.953196 0 15.797275-7.944294 15.797275-18.445373 0-10.683706-5.935393-18.628-15.797275-18.628-5.24808.033778-10.038822 2.992765-12.418667 7.670353zm113.22902 22.189235h-18.354059v-6.026706c-4.584272 4.893886-11.009522 7.642833-17.714863 7.57904-14.792823 0-23.193686-9.770569-23.193686-24.380765v-43.1913923h18.354059v39.4475293c0 6.939843 3.378608 11.688157 10.683706 11.688157 5.661451 0 10.501078-3.378608 11.870784-9.131373v-42.0043133h18.445373v66.0198233zm30.498784 24.380765h-18.354059v-90.491902h18.354059v5.4788235c2.922039-3.5612353 9.496628-6.9398431 16.527785-6.9398431 19.267196 0 30.133529 15.9799016 30.133529 34.6079016s-10.957647 34.425275-30.133529 34.425275c-7.122471 0-13.605746-3.378608-16.527785-6.939843zm0-46.57c2.357309 4.698276 7.162178 7.665989 12.418667 7.670353 9.953196 0 15.797274-7.944294 15.797274-18.445373 0-10.683706-5.935392-18.628-15.797274-18.628-5.24808.033778-10.038822 2.992765-12.418667 7.670353zm73.050981 46.57h-18.354059v-90.491902h18.354059v5.4788235c2.922039-3.5612353 9.496627-6.9398431 16.527784-6.9398431 19.267196 0 30.133529 15.9799016 30.133529 34.6079016s-10.957647 34.425275-30.133529 34.425275c-7.122471 0-13.605745-3.378608-16.527784-6.939843zm0-46.57c2.357308 4.698276 7.162177 7.665989 12.418666 7.670353 9.953196 0 15.797275-7.944294 15.797275-18.445373 0-10.683706-5.935392-18.628-15.797275-18.628-5.24808.033778-10.038822 2.992765-12.418666 7.670353zm112.498509.547882c-2.374156 14.062314-12.692607 23.102373-29.311705 23.102373-19.267197 0-32.051118-14.062314-32.051118-34.425275 0-19.997706 13.331804-34.6079016 31.777176-34.6079016 19.35851 0 30.042216 13.4231176 30.042216 32.8729416v5.661451h-44.104529c.547882 9.953196 6.209333 15.797274 14.336255 15.797274 6.209333 0 10.775019-2.648098 12.236039-8.309549h17.075666zm-43.191392-18.628h25.567843c-.182627-6.939843-4.291745-12.418666-11.870784-12.418666-7.031157 0-12.053412 4.291745-13.697059 12.418666zm55.610059-11.048961h-10.04451v-14.792823h10.04451v-17.8974902h18.171431v17.8974902h14.518883v14.792823h-14.518883v28.946451c0 5.204883 2.830726 7.57904 7.57904 7.57904 2.794995-.017363 5.535711-.773422 7.944294-2.19153v16.253843c-2.556784 1.369706-6.939843 2.100216-11.870784 2.100216-13.423118 0-21.915295-6.665902-21.915295-21.276098v-31.411922z"/></svg>

<?xml version="1.0" encoding="UTF-8"?>
<svg width="512px" height="181px" viewBox="0 0 512 181" version="1.1" xmlns="http://www.w3.org/2000/svg" xmlns:xlink="http://www.w3.org/1999/xlink" preserveAspectRatio="xMidYMid">
    <g>
        <path d="M90.491902,90.491902 L90.491902,48.8528431 L58.6234118,48.8528431 L41.6390588,31.7771765 L41.6390588,0 L0,0 L0,41.6390588 L31.8684902,41.6390588 L48.9441569,58.7147255 L48.9441569,80.7213333 L31.8684902,97.797 L0,97.797 L0,139.436059 L41.6390588,139.436059 L41.6390588,107.658882 L58.7147255,90.5832157 L90.491902,90.5832157 L90.491902,90.491902 L90.491902,90.491902 Z M13.8796863,13.8796863 L27.7593725,13.8796863 L27.7593725,27.7593725 L13.8796863,27.7593725 L13.8796863,13.8796863 Z M27.7593725,125.465059 L13.8796863,125.465059 L13.8796863,111.585373 L27.7593725,111.585373 L27.7593725,125.465059 Z" fill="#FFAE1A"></path>
        <path d="M136.605333,180.983804 L118.251275,180.983804 L118.251275,90.491902 L136.605333,90.491902 L136.605333,95.9707255 C139.527373,92.4094902 146.101961,89.0308824 153.133118,89.0308824 C172.400314,89.0308824 183.266647,105.010784 183.266647,123.638784 C183.266647,142.266784 172.309,158.064059 153.133118,158.064059 C146.010647,158.064059 139.527373,154.685451 136.605333,151.124216 L136.605333,180.983804 L136.605333,180.983804 Z M136.605333,134.413804 C138.962642,139.11208 143.767511,142.079793 149.024,142.084157 C158.977196,142.084157 164.821275,134.139863 164.821275,123.638784 C164.821275,112.955078 158.885882,105.010784 149.024,105.010784 C143.77592,105.044562 138.985178,108.003549 136.605333,112.681137 L136.605333,134.413804 L136.605333,134.413804 Z M249.834353,156.603039 L231.480294,156.603039 L231.480294,150.576333 C226.896022,155.470219 220.470772,158.219166 213.765431,158.155373 C198.972608,158.155373 190.571745,148.384804 190.571745,133.774608 L190.571745,90.5832157 L208.925804,90.5832157 L208.925804,130.030745 C208.925804,136.970588 212.304412,141.718902 219.60951,141.718902 C225.270961,141.718902 230.110588,138.340294 231.480294,132.587529 L231.480294,90.5832157 L249.925667,90.5832157 L249.925667,156.603039 L249.834353,156.603039 L249.834353,156.603039 Z M280.333137,180.983804 L261.979078,180.983804 L261.979078,90.491902 L280.333137,90.491902 L280.333137,95.9707255 C283.255176,92.4094902 289.829765,89.0308824 296.860922,89.0308824 C316.128118,89.0308824 326.994451,105.010784 326.994451,123.638784 C326.994451,142.266784 316.036804,158.064059 296.860922,158.064059 C289.738451,158.064059 283.255176,154.685451 280.333137,151.124216 L280.333137,180.983804 L280.333137,180.983804 Z M280.333137,134.413804 C282.690446,139.11208 287.495315,142.079793 292.751804,142.084157 C302.705,142.084157 308.549078,134.139863 308.549078,123.638784 C308.549078,112.955078 302.613686,105.010784 292.751804,105.010784 C287.503724,105.044562 282.712982,108.003549 280.333137,112.681137 L280.333137,134.413804 Z M353.384118,180.983804 L335.030059,180.983804 L335.030059,90.491902 L353.384118,90.491902 L353.384118,95.9707255 C356.306157,92.4094902 362.880745,89.0308824 369.911902,89.0308824 C389.179098,89.0308824 400.045431,105.010784 400.045431,123.638784 C400.045431,142.266784 389.087784,158.064059 369.911902,158.064059 C362.789431,158.064059 356.306157,154.685451 353.384118,151.124216 L353.384118,180.983804 L353.384118,180.983804 Z M353.384118,134.413804 C355.741426,139.11208 360.546295,142.079793 365.802784,142.084157 C375.75598,142.084157 381.600059,134.139863 381.600059,123.638784 C381.600059,112.955078 375.664667,105.010784 365.802784,105.010784 C360.554704,105.044562 355.763962,108.003549 353.384118,112.681137 L353.384118,134.413804 Z M465.882627,134.961686 C463.508471,149.024 453.19002,158.064059 436.570922,158.064059 C417.303725,158.064059 404.519804,144.001745 404.519804,123.638784 C404.519804,103.641078 417.851608,89.0308824 436.29698,89.0308824 C455.65549,89.0308824 466.339196,102.454 466.339196,121.903824 L466.339196,127.565275 L422.234667,127.565275 C422.782549,137.518471 428.444,143.362549 436.570922,143.362549 C442.780255,143.362549 447.345941,140.714451 448.806961,135.053 L465.882627,135.053 L465.882627,134.961686 L465.882627,134.961686 Z M422.691235,116.333686 L448.259078,116.333686 C448.076451,109.393843 443.967333,103.91502 436.388294,103.91502 C429.357137,103.91502 424.334882,108.206765 422.691235,116.333686 Z M478.301294,105.284725 L468.256784,105.284725 L468.256784,90.491902 L478.301294,90.491902 L478.301294,72.5944118 L496.472725,72.5944118 L496.472725,90.491902 L510.991608,90.491902 L510.991608,105.284725 L496.472725,105.284725 L496.472725,134.231176 C496.472725,139.436059 499.303451,141.810216 504.051765,141.810216 C506.84676,141.792853 509.587476,141.036794 511.996059,139.618686 L511.996059,155.872529 C509.439275,157.242235 505.056216,157.972745 500.125275,157.972745 C486.702157,157.972745 478.20998,151.306843 478.20998,136.696647 L478.20998,105.284725 L478.301294,105.284725 Z" fill="#000000"></path>
    </g>
</svg>
